src/cards/diamonds_10.svg

<svg version="1.1" id="Layer_1" xmlns="http://www.w3.org/2000/svg" xmlns:xlink="http://www.w3.org/1999/xlink" x="0px" y="0px"
	 width="100%" viewBox="0 0 336 496" enable-background="new 0 0 336 496" xml:space="preserve">
<path fill="currentColor" opacity="1.000000" stroke="none" 
	d="
M1.000000,16.428463 
	C3.727796,15.219826 6.321745,14.146217 8.668404,12.523450 
	C10.483241,11.268447 12.340229,10.139902 14.642530,11.281322 
	C17.008131,12.454123 16.295961,14.700420 16.312479,16.576727 
	C16.385519,24.873846 16.402706,33.172565 16.316851,41.469425 
	C16.282742,44.765697 16.672325,47.494392 20.789932,47.802151 
	C22.454687,47.926575 23.739443,48.828972 23.601770,50.639248 
	C23.429573,52.903511 21.526514,52.955833 19.859257,52.971272 
	C13.885521,53.026588 7.911125,53.010487 1.468490,53.010696 
	C1.000000,51.285641 1.000000,49.571285 1.329641,47.568512 
	C4.311502,47.937122 7.290329,48.011955 7.450896,44.645969 
	C7.826595,36.770138 7.570959,28.864189 7.570959,20.970728 
	C4.750922,20.747122 2.870912,21.347284 1.000000,22.000000 
	C1.000000,20.285643 1.000000,18.571283 1.000000,16.428463 
z"/>
<path fill="currentColor" opacity="1.000000" stroke="none" 
	d="
M337.000000,479.571533 
	C334.413849,479.485870 332.627686,481.221100 330.636322,482.313507 
	C326.007172,484.852814 323.720825,483.683746 323.677887,478.536194 
	C323.605774,469.889496 323.512665,461.238464 323.717865,452.596130 
	C323.798828,449.187531 322.780090,447.245026 319.320129,446.654846 
	C317.711884,446.380524 315.763428,445.973236 316.127533,443.662933 
	C316.492523,441.346893 318.542450,441.745636 320.121246,441.734955 
	C325.441040,441.698944 330.761566,441.764801 336.540894,441.895844 
	C337.000000,443.388885 337.000000,444.777802 336.618195,446.667114 
	C333.239807,447.163727 332.258148,448.786713 332.313110,451.616577 
	C332.422333,457.244629 332.470367,462.879944 332.302063,468.505035 
	C332.198883,471.953552 333.435516,473.874146 337.000000,474.000000 
	C337.000000,475.714355 337.000000,477.428711 337.000000,479.571533 
z"/>
<path fill="currentColor" opacity="1.000000" stroke="none" 
	d="
M217.501328,422.503784 
	C213.189438,419.113983 209.145264,415.955200 204.203201,412.095123 
	C218.415039,402.457489 230.122284,390.908875 239.879593,376.108551 
	C250.095001,390.397339 261.177307,402.629913 276.404388,412.093811 
	C261.759003,421.883301 249.965378,433.351959 240.156998,448.439392 
	C233.011490,438.675293 226.328461,429.831665 217.501328,422.503784 
z"/>
<path fill="currentColor" opacity="1.000000" stroke="none" 
	d="
M80.125969,314.874756 
	C74.973671,310.673523 70.075836,306.719025 64.394783,302.132111 
	C78.329521,292.445709 90.089417,280.953857 99.808418,266.171967 
	C110.114250,280.258759 121.190712,292.498749 136.296982,302.118835 
	C121.799141,311.900269 109.941254,323.294922 100.259392,338.243439 
	C93.684738,329.689423 87.842636,321.663696 80.125969,314.874756 
z"/>
<path fill="currentColor" opacity="1.000000" stroke="none" 
	d="
M115.297531,99.300224 
	C109.640442,104.937714 105.323860,111.253357 100.006836,118.023140 
	C90.013718,104.101906 79.013649,92.044083 63.983757,82.476959 
	C78.218338,72.421738 90.072418,61.050865 99.831001,46.199230 
	C110.054985,60.492973 121.532661,72.486732 136.027008,82.164871 
	C128.538742,87.808372 121.453506,92.739334 115.297531,99.300224 
z"/>
<path fill="currentColor" opacity="1.000000" stroke="none" 
	d="
M251.293823,280.715027 
	C258.633514,288.908325 266.759705,295.708893 275.923126,302.228210 
	C268.729889,307.583679 262.116974,312.537659 256.187256,318.332855 
	C250.341690,324.045776 245.737427,330.771332 239.982254,338.005005 
	C230.025604,324.035126 218.933380,311.881683 203.846619,302.468842 
	C218.382248,292.464081 230.085083,280.892914 239.748947,266.348297 
	C243.873093,271.481232 247.471741,275.960083 251.293823,280.715027 
z"/>
<path fill="currentColor" opacity="1.000000" stroke="none" 
	d="
M139.669937,350.648926 
	C151.620163,341.998169 161.204788,331.506897 169.915955,318.693329 
	C180.108932,333.138672 191.344193,345.181091 206.284210,354.621368 
	C191.732010,364.495178 179.868286,375.896759 170.137039,390.964325 
	C160.155151,376.320618 148.678909,364.569458 134.912704,355.479919 
	C135.823181,352.708130 137.924362,352.118805 139.669937,350.648926 
z"/>
<path fill="currentColor" opacity="1.000000" stroke="none" 
	d="
M89.238571,170.246704 
	C92.821220,165.693649 96.177307,161.412537 100.088417,156.423447 
	C110.087807,170.430557 121.213829,182.609909 136.423431,192.166138 
	C121.564407,201.748810 110.087593,213.528870 100.082848,228.297699 
	C90.103111,213.949738 78.954666,202.042557 64.212936,192.596344 
	C73.217186,185.347580 82.076698,178.961731 89.238571,170.246704 
z"/>
<path fill="currentColor" opacity="1.000000" stroke="none" 
	d="
M237.446564,159.536407 
	C238.857285,157.496460 240.245987,156.361359 241.867462,158.711273 
	C250.924118,171.836609 262.096252,182.841782 276.220917,192.200684 
	C261.608459,201.826279 250.039719,213.498367 240.027222,228.288513 
	C230.167053,213.837463 218.888168,202.070557 204.014847,192.452332 
	C217.206329,182.967361 228.666428,172.797256 237.446564,159.536407 
z"/>
<path fill="currentColor" opacity="1.000000" stroke="none" 
	d="
M260.377991,94.377594 
	C252.624985,101.244171 246.492828,109.082077 240.009430,118.049675 
	C230.084946,103.864548 218.755600,91.954506 203.888641,82.348587 
	C218.551102,72.548805 230.045517,60.778934 239.962646,46.171623 
	C250.032410,60.682072 261.546082,72.458618 275.835388,82.022728 
	C270.404999,86.343788 265.514832,90.234955 260.377991,94.377594 
z"/>
<path fill="currentColor" opacity="1.000000" stroke="none" 
	d="
M71.992485,418.015015 
	C69.562592,416.014893 66.791565,414.994476 64.647232,411.822052 
	C78.504616,402.506012 90.263802,391.006317 99.792709,375.971710 
	C110.066116,390.447357 121.207115,402.611023 136.357101,412.112457 
	C121.641983,421.842102 110.013214,433.472198 99.952087,448.619629 
	C91.978142,436.306061 82.955635,426.460785 71.992485,418.015015 
z"/>
<path fill="currentColor" opacity="1.000000" stroke="none" 
	d="
M156.804108,159.182266 
	C150.442062,151.401611 142.269821,146.145737 134.199265,139.431061 
	C148.739792,130.036591 160.054016,118.262070 169.911911,103.762108 
	C180.141602,118.191803 191.450287,130.181610 206.193268,139.734253 
	C191.566818,149.447769 179.907425,160.900391 170.176666,175.854111 
	C165.566055,169.832245 161.851929,164.153061 156.804108,159.182266 
z"/>
<path fill="currentColor" opacity="1.000000" stroke="none" 
	d="
M279.659729,462.993652 
	C279.735077,459.872009 279.689789,457.254883 280.372131,454.608246 
	C282.801636,445.185120 288.322296,440.555969 297.222595,440.797699 
	C305.537048,441.023529 310.518127,445.693481 312.009003,455.403961 
	C312.736511,460.142273 312.847107,465.032196 311.743683,469.798279 
	C309.510193,479.445435 303.373627,484.401855 294.586914,483.747772 
	C285.616364,483.079987 280.535645,477.524567 279.732208,467.458008 
	C279.626465,466.133240 279.680389,464.795715 279.659729,462.993652 
M301.909698,454.592316 
	C301.562195,453.151794 301.356781,451.657349 300.835266,450.282867 
	C299.962494,447.982544 298.527344,446.212250 295.728180,446.346985 
	C293.027832,446.476959 291.387695,448.141235 290.733704,450.516022 
	C288.619293,458.193451 288.683411,465.920563 291.014954,473.540100 
	C291.799500,476.104065 293.101929,478.758484 296.388611,478.523865 
	C299.471313,478.303772 300.838654,475.834778 301.536194,473.159454 
	C303.062653,467.304840 303.107513,461.370026 301.909698,454.592316 
z"/>
<path fill="currentColor" opacity="1.000000" stroke="none" 
	d="
M49.892883,11.602977 
	C55.540466,13.506630 58.207378,17.429995 59.379543,22.643585 
	C60.785397,28.896589 60.995171,35.159794 59.268219,41.352894 
	C56.884243,49.902180 51.634052,53.508999 42.252266,53.328190 
	C34.797878,53.184525 30.451721,49.418770 28.438274,40.865898 
	C27.093210,35.152248 27.032398,29.312603 28.572266,23.612314 
	C31.364513,13.275950 38.928612,8.971407 49.892883,11.602977 
M43.022655,48.329155 
	C46.953312,49.017452 48.543266,46.283840 49.382206,43.379288 
	C51.507355,36.021702 51.058552,28.558468 49.244068,21.196194 
	C48.575581,18.483818 47.058788,16.235395 43.806984,16.224859 
	C40.519657,16.214209 39.138287,18.523060 38.437588,21.228937 
	C36.518814,28.638638 36.935413,36.051735 38.839966,43.401600 
	C39.354836,45.388527 40.473862,47.039680 43.022655,48.329155 
z"/>
<path fill="currentColor" opacity="1.000000" stroke="none" 
	d="
M34.231491,100.204620 
	C32.765106,101.783318 32.173985,103.679825 29.779230,104.842949 
	C24.577995,98.751381 19.286255,92.436974 11.586949,87.431351 
	C18.778624,82.091873 24.504732,76.262337 29.946875,69.123734 
	C35.592255,75.872337 40.822334,82.221542 48.708332,87.174080 
	C42.961258,91.275772 38.208805,95.097328 34.231491,100.204620 
z"/>
<path fill="currentColor" opacity="1.000000" stroke="none" 
	d="
M317.772705,398.224792 
	C321.208740,401.326019 324.392395,404.176514 328.127380,407.520691 
	C321.016785,412.345245 315.392548,418.271576 310.089569,425.512634 
	C304.683929,418.364410 298.923309,412.543640 291.404877,406.991516 
	C299.114777,402.338898 304.380219,396.217285 309.433441,389.679230 
	C313.342133,391.640869 314.676910,395.561462 317.772705,398.224792 
z"/>
</svg>

<svg xmlns="http://www.w3.org/2000/svg" viewBox="0 0 336 496" xml:space="preserve"><path fill="currentColor" d="M1 16.428c2.728-1.208 5.322-2.282 7.668-3.905 1.815-1.255 3.672-2.383 5.975-1.242 2.365 1.173 1.653 3.42 1.67 5.296.073 8.297.09 16.596.004 24.892-.034 3.297.355 6.025 4.473 6.333 1.665.125 2.95 1.027 2.812 2.837-.172 2.265-2.075 2.317-3.743 2.332-5.973.056-11.948.04-18.39.04C1 51.286 1 49.57 1.328 47.569c2.983.368 5.961.443 6.122-2.923.376-7.876.12-15.782.12-23.675-2.82-.224-4.7.376-6.571 1.029v-5.572zM337 479.572c-2.586-.086-4.372 1.65-6.364 2.742-4.629 2.539-6.915 1.37-6.958-3.778-.072-8.647-.165-17.298.04-25.94.08-3.408-.938-5.351-4.398-5.941-1.608-.274-3.557-.682-3.192-2.992.365-2.316 2.414-1.917 3.993-1.928 5.32-.036 10.64.03 16.42.16.459 1.494.459 2.883.077 4.772-3.378.497-4.36 2.12-4.305 4.95.11 5.628.157 11.263-.01 16.888-.104 3.449 1.133 5.37 4.697 5.495v5.572zM217.501 422.504c-4.312-3.39-8.356-6.549-13.298-10.409 14.212-9.638 25.92-21.186 35.677-35.986 10.215 14.288 21.297 26.52 36.524 35.985-14.645 9.79-26.439 21.258-36.247 36.345-7.146-9.764-13.829-18.607-22.656-25.935zM80.126 314.875c-5.152-4.201-10.05-8.156-15.731-12.743 13.935-9.686 25.694-21.178 35.413-35.96 10.306 14.087 21.383 26.327 36.489 35.947-14.498 9.781-26.356 21.176-36.038 36.124-6.574-8.554-12.416-16.58-20.133-23.368zM115.298 99.3c-5.658 5.638-9.974 11.953-15.291 18.723-9.993-13.921-20.993-25.979-36.023-35.546C78.218 72.422 90.072 61.051 99.83 46.199c10.224 14.294 21.702 26.288 36.196 35.966-7.488 5.643-14.573 10.574-20.73 17.135zM251.294 280.715c7.34 8.193 15.466 14.994 24.63 21.513-7.194 5.356-13.807 10.31-19.737 16.105-5.845 5.713-10.45 12.438-16.205 19.672-9.956-13.97-21.049-26.123-36.135-35.536 14.535-10.005 26.238-21.576 35.902-36.12l11.545 14.366zM139.67 350.649c11.95-8.65 21.535-19.142 30.246-31.956 10.193 14.446 21.428 26.488 36.368 35.928-14.552 9.874-26.416 21.276-36.147 36.343-9.982-14.643-21.458-26.395-35.224-35.484.91-2.772 3.011-3.361 4.757-4.831zM89.239 170.247c3.582-4.553 6.938-8.834 10.85-13.824 9.999 14.008 21.125 26.187 36.334 35.743-14.859 9.583-26.335 21.363-36.34 36.132-9.98-14.348-21.128-26.255-35.87-35.702 9.004-7.248 17.864-13.634 25.026-22.35zM237.447 159.536c1.41-2.04 2.799-3.175 4.42-.825 9.057 13.126 20.23 24.13 34.354 33.49-14.613 9.625-26.181 21.297-36.194 36.088-9.86-14.452-21.139-26.218-36.012-35.837 13.191-9.485 24.651-19.655 33.432-32.916zM260.378 94.378c-7.753 6.866-13.885 14.704-20.369 23.672-9.924-14.185-21.253-26.095-36.12-35.701 14.662-9.8 26.157-21.57 36.074-36.177 10.07 14.51 21.583 26.287 35.872 35.85-5.43 4.322-10.32 8.213-15.457 12.356zM71.992 418.015c-2.43-2-5.2-3.02-7.345-6.193 13.858-9.316 25.617-20.816 35.146-35.85 10.273 14.475 21.414 26.639 36.564 36.14-14.715 9.73-26.344 21.36-36.405 36.508-7.974-12.314-16.996-22.16-27.96-30.605zM156.804 159.182c-6.362-7.78-14.534-13.036-22.605-19.75 14.54-9.395 25.855-21.17 35.713-35.67 10.23 14.43 21.538 26.42 36.281 35.972-14.626 9.714-26.286 21.166-36.016 36.12-4.61-6.022-8.325-11.7-13.373-16.672zM279.66 462.994c.075-3.122.03-5.74.712-8.386 2.43-9.423 7.95-14.052 16.85-13.81 8.315.226 13.296 4.895 14.787 14.606.728 4.738.838 9.628-.265 14.394-2.234 9.647-8.37 14.604-17.157 13.95-8.97-.668-14.051-6.223-14.855-16.29-.106-1.325-.052-2.662-.072-4.464m22.25-8.402c-.348-1.44-.553-2.935-1.075-4.31-.873-2.3-2.308-4.07-5.107-3.935-2.7.13-4.34 1.794-4.994 4.169-2.115 7.677-2.05 15.405.281 23.024.785 2.564 2.087 5.218 5.374 4.984 3.082-.22 4.45-2.69 5.147-5.365 1.527-5.854 1.572-11.789.374-18.567zM49.893 11.603c5.647 1.904 8.314 5.827 9.487 11.04 1.405 6.254 1.615 12.517-.112 18.71-2.384 8.55-7.634 12.156-17.016 11.975-7.454-.143-11.8-3.91-13.814-12.462-1.345-5.714-1.406-11.553.134-17.254 2.793-10.336 10.357-14.64 21.32-12.009m-6.87 36.726c3.931.688 5.521-2.045 6.36-4.95 2.125-7.357 1.677-14.82-.138-22.183-.668-2.712-2.185-4.96-5.437-4.971-3.287-.01-4.669 2.298-5.37 5.004-1.918 7.41-1.502 14.823.403 22.173.515 1.987 1.634 3.638 4.183 4.927zM34.231 100.205c-1.466 1.578-2.057 3.475-4.452 4.638-5.201-6.092-10.493-12.406-18.192-17.412 7.192-5.34 12.918-11.169 18.36-18.307 5.645 6.748 10.875 13.098 18.761 18.05-5.747 4.102-10.5 7.923-14.477 13.03zM317.773 398.225c3.436 3.101 6.62 5.952 10.354 9.296-7.11 4.824-12.734 10.75-18.037 17.992-5.406-7.149-11.167-12.97-18.685-18.521 7.71-4.653 12.975-10.775 18.028-17.313 3.91 1.962 5.244 5.882 8.34 8.546z"/></svg>
